svgs/authpass.svg

<svg xmlns="http://www.w3.org/2000/svg" viewBox="0 0 192 192"><path d="M36.925 39.363h36.693L88.295 70.26c6.89 13.805 15.818 14.298 25.154 14.298h56.955a5.07 5.07 0 0 1 2.56.694 5.133 5.133 0 0 1 1.867 1.897c.445.787.676 1.679.669 2.585v12.532a5.172 5.172 0 0 1-.669 2.585 5.133 5.133 0 0 1-1.867 1.897 5.07 5.07 0 0 1-2.56.694h-7.216v22.063H152.18v-10.641h-10.845v22.68h-11.66v-34.102h-15.818c-9.459 0-18.469.452-25.399 14.421L73.781 152.76H37.088c-6.074 0-8.153-3.821-9.58-9.655l-7.543-32.869L16.5 96.062l3.262-14.298 7.542-32.869c1.345-5.834 3.506-9.655 9.621-9.655Zm0 0" fill="none" stroke="#000" stroke-width="12" stroke-linecap="round" stroke-linejoin="round"/></svg>

<svg
    xmlns="http://www.w3.org/2000/svg"
    viewBox="0 0 192 192"
    id="vector">
    <path
        id="path"
        d="M 36.925 39.363 L 73.618 39.363 L 88.295 70.26 C 95.185 84.065 104.113 84.558 113.449 84.558 L 170.404 84.558 C 171.303 84.558 172.186 84.797 172.964 85.252 C 173.741 85.708 174.385 86.362 174.831 87.149 C 175.276 87.936 175.507 88.828 175.5 89.734 L 175.5 102.266 C 175.507 103.172 175.276 104.064 174.831 104.851 C 174.385 105.638 173.741 106.292 172.964 106.748 C 172.186 107.203 171.303 107.442 170.404 107.442 L 163.188 107.442 L 163.188 129.505 L 152.18 129.505 L 152.18 118.864 L 141.335 118.864 L 141.335 141.544 L 129.675 141.544 L 129.675 107.442 L 113.857 107.442 C 104.398 107.442 95.388 107.894 88.458 121.863 L 73.781 152.76 L 37.088 152.76 C 31.014 152.76 28.935 148.939 27.508 143.105 L 19.965 110.236 L 16.5 96.062 L 19.762 81.764 L 27.304 48.895 C 28.649 43.061 30.81 39.24 36.925 39.24 Z M 36.925 39.363"
        fill="none"
        stroke="#000000"
        stroke-width="12"
        stroke-linecap="round"
        stroke-linejoin="round"/>
</svg>
